X:1
T:Title
%%score { ( 1 4 ) | ( 2 3 ) }
L:1/8
M:3/4
K:Bb
V:1 treble nm="Grand Piano"
V:4 treble 
V:2 bass 
V:3 bass 
V:1
 z2 z2[Q:1/4=100] [DF]>[EG] | [DF]3 [Fd] [Fc]>[Fd] | [Gc]2 [GB]2 [FA]>[EG] | [DF]3 [EG] [DF]>[FB] | %4
[M:2/4] c2 F2 |[M:1/4] [DF]>[EG] |[M:3/4] [DF]3 [Fd] [Fc]>[Fd] | [Gc]2 [GB]2 [FA]>G | F3 B c>d | %9
[M:2/4] [DB]4 |[M:1/4] F>d |[M:3/4] d2 c2 z2 | c2 B2 z2 | F3 G E>F |[M:2/4] D4 |[M:1/4] F>d | %16
[M:3/4] d2 c2 z2 | c2 B2 z2 | F3 B c>d |[M:2/4] [DB]4 |] %20
V:2
 z2 z2 [B,,B,]>[B,,B,] | [B,,B,]3 [B,,B,] [D,B,]>[D,B,] | [E,B,]2 [E,B,]2 [E,B,]>[E,B,] | %3
 [B,,B,]3 [B,,B,] [B,,B,]>[D,B,] |[M:2/4] [A,F]2 z2 |[M:1/4] [B,,B,]>[B,,B,] | %6
[M:3/4] [B,,B,]3 [B,,B,] [D,B,]>[D,B,] | [E,B,]2 [E,B,]2 [E,B,]>[E,B,E] | %8
 [F,B,D]3 [F,D] [F,E]>[F,F] |[M:2/4] [B,,F,]4 |[M:1/4] z2 | %11
[M:3/4] [F,B,F]>[F,B,] [F,A,E]>[F,A,] z2 | [F,A,E]>[F,A,] [B,,B,]>[B,,B,] [E,B,F]>[E,B,E] | %13
 [F,B,D]3 [F,E] [F,C]>[F,D] |[M:2/4] [B,,F,B,]4 |[M:1/4] z2 | %16
[M:3/4] [F,B,F]>[F,B,] [F,A,E]>[F,A,] z2 | [F,A,E]>[F,A,] [B,,B,]>[B,,B,] [E,B,F]>[E,B,E] | %18
 [F,B,D]3 [F,D] [F,E]>[F,F] |[M:2/4] [B,,F,]4 |] %20
V:3
 x6 | x6 | x6 | x6 |[M:2/4] F,2- [F,CE]2 |[M:1/4] x2 |[M:3/4] x6 | x6 | x6 |[M:2/4] x4 | %10
[M:1/4] x2 |[M:3/4] x6 | x6 | x6 |[M:2/4] x4 |[M:1/4] x2 |[M:3/4] x6 | x6 | x6 |[M:2/4] x4 |] %20
V:4
 x6 | x6 | x6 | x6 |[M:2/4] x4 |[M:1/4] x2 |[M:3/4] x6 | x6 | x6 |[M:2/4] x4 |[M:1/4] x2 | %11
[M:3/4] z z/ F/ z z/ E/ F>c | z z/ E/ D>D A>G | x6 |[M:2/4] x4 |[M:1/4] x2 | %16
[M:3/4] z z/ F/ z z/ E/ F>c | z z/ E/ D>D A>G | x6 |[M:2/4] x4 |] %20

